bs-navigator/img/icons/insta-f.svg

<svg width="25" height="24" viewBox="0 0 25 24" fill="none" xmlns="http://www.w3.org/2000/svg">
<g clip-path="url(#clip0_20_121)">
<path d="M17.2542 0H7.19774C5.3493 0.00192736 3.57712 0.737072 2.27007 2.04412C0.963024 3.35116 0.22788 5.12335 0.225952 6.97179L0.225952 17.0282C0.22788 18.8767 0.963024 20.6488 2.27007 21.9559C3.57712 23.2629 5.3493 23.9981 7.19774 24H17.2542C19.1026 23.9981 20.8748 23.2629 22.1818 21.9559C23.4889 20.6488 24.224 18.8767 24.226 17.0282V6.97179C24.224 5.12335 23.4889 3.35116 22.1818 2.04412C20.8748 0.737072 19.1026 0.00192736 17.2542 0V0ZM22.3507 17.0282C22.3492 18.3794 21.8118 19.6749 20.8563 20.6304C19.9009 21.5858 18.6054 22.1233 17.2542 22.1248H7.19774C5.8465 22.1233 4.55104 21.5858 3.59557 20.6304C2.64011 19.6749 2.10267 18.3794 2.10117 17.0282V6.97179C2.10267 5.62055 2.64011 4.32509 3.59557 3.36962C4.55104 2.41415 5.8465 1.87671 7.19774 1.87521H17.2542C18.6054 1.87671 19.9009 2.41415 20.8563 3.36962C21.8118 4.32509 22.3492 5.62055 22.3507 6.97179V17.0282Z" fill="#CAE3B7"/>
<path d="M12.2288 5.53101C10.9488 5.53101 9.69752 5.91057 8.63324 6.62171C7.56895 7.33284 6.73944 8.3436 6.2496 9.52618C5.75976 10.7088 5.6316 12.01 5.88132 13.2654C6.13103 14.5208 6.74742 15.674 7.65252 16.5791C8.55762 17.4842 9.71079 18.1006 10.9662 18.3503C12.2216 18.6 13.5229 18.4719 14.7055 17.982C15.888 17.4922 16.8988 16.6627 17.6099 15.5984C18.3211 14.5341 18.7006 13.2829 18.7006 12.0028C18.6996 10.2867 18.0174 8.64122 16.8039 7.42775C15.5904 6.21428 13.9449 5.53208 12.2288 5.53101ZM12.2288 16.5938C11.3201 16.5943 10.4317 16.3252 9.67594 15.8207C8.92019 15.3161 8.33106 14.5988 7.9831 13.7594C7.63514 12.9199 7.54397 11.9961 7.72113 11.1049C7.89829 10.2136 8.33581 9.39494 8.97836 8.7524C9.6209 8.10986 10.4396 7.67233 11.3308 7.49517C12.2221 7.31801 13.1459 7.40918 13.9853 7.75714C14.8247 8.10511 15.5421 8.69423 16.0466 9.44998C16.5512 10.2057 16.8202 11.0942 16.8198 12.0028C16.8176 13.2198 16.3333 14.3863 15.4727 15.2468C14.6122 16.1073 13.4457 16.5917 12.2288 16.5938Z" fill="#CAE3B7"/>
<path d="M18.86 6.47172C19.5302 6.47172 20.0735 6.10953 20.0735 5.66274C20.0735 5.21595 19.5302 4.85376 18.86 4.85376C18.1898 4.85376 17.6465 5.21595 17.6465 5.66274C17.6465 6.10953 18.1898 6.47172 18.86 6.47172Z" fill="#CAE3B7"/>
</g>
<defs>
<clipPath id="clip0_20_121">
<rect width="24" height="24" fill="white" transform="translate(0.225952)"/>
</clipPath>
</defs>
</svg>

<svg width="25" height="24" fill="none" xmlns="http://www.w3.org/2000/svg"><g clip-path="url(#clip0_20_121)" fill="#CAE3B7"><path d="M17.254 0H7.198A6.98 6.98 0 00.226 6.972v10.056A6.98 6.98 0 007.198 24h10.056a6.979 6.979 0 006.972-6.972V6.972A6.98 6.98 0 0017.254 0zm5.097 17.028a5.102 5.102 0 01-5.097 5.097H7.198A5.103 5.103 0 012.1 17.028V6.972a5.102 5.102 0 015.097-5.097h10.056a5.102 5.102 0 015.097 5.097v10.056z"/><path d="M12.229 5.531a6.472 6.472 0 100 12.944 6.472 6.472 0 000-12.944zm0 11.063a4.594 4.594 0 11-.005-9.187 4.594 4.594 0 01.005 9.187zM18.86 6.472c.67 0 1.213-.362 1.213-.81 0-.446-.543-.808-1.213-.808s-1.213.362-1.213.809c0 .447.543.809 1.213.809z"/></g><defs><clipPath id="clip0_20_121"><path fill="#fff" transform="translate(.226)" d="M0 0h24v24H0z"/></clipPath></defs></svg>
